X:1
T:Fairy Queen [1]
T:Fairy Queen [1]
T:Carolan
C:Carolan
L:1/8
Q:1/4=112
M:6/4
K:G
V:1 treble 
V:1
"^Allegretto" G4 D2 F4 D2 | G4 D2{A} G>FG>AB>A | G3 F ED{C} B,4 (A,/B,/D) | E4 TF2 [B,G]4{c} B>A | %4
 G4{AB} d2 F4 d2 | E3 F ED{C} B,4 D2 |{F} (E>D)(EF)(GE) (DB) TA4{GA} | (TG6 G6) :: %8
 (BABcBc){c} (BABc)(BG) | [DA]4 A2 (A2 B2) d2 | G3 G dG F3 F dF | (EDEF)(ED){C} B,4 (D/E/F) | %12
 (GFED) TB,>A, G,4 FG | [FA]3 G FE D4 GA | d4 [CE]2 A4 D2 | G6{FG} [B,G]4 z2 :| %16
 .G2 .G2 .F2 .E2 .D2 .C2 | (B,DGB,) (A,G) G4 z2 | G2 G2 .D2 (E2 F2) [DG]2 | (A>BA).G.F.^E D4 GA | %20
{GA} [GB]4 z B [FA]4 z A | G2 G2 ED{C} B,4 GF | (EDEF)(ED){C} (B,>A,G,A,)(B,D) | %23
{D} E6 z2 z2 (d/e/f) | [Gg]2 [dg]2 f2 (e2 d2) T[Gc]2 | BdgB Ag G4 TF2{EF} [B,G]6 T[FA]6{GA} | %26
 [DB]6 z2 z2 d2 |{f} (edef) (ef){a} (gfga) (gf) |{f} (edefed){!fermata!c} !fermata!B4 (gf) | %29
 (edef) (g<d) (e<B) TA4 | G4 [B,G]2 [B,G]4 z2 || %31

